!!!ONB: MCCC : ILB0191_01 : Extracted Monophonic Melody
!!!COM: Beethoven, Ludwig van
!!!OPR: Piano Sonata No.30
!!!OMV: 1
!!!SCT: Op.109
!!!ODT: 1820///
**kern
*thru
*staff1
*Ipiano
*clefG2
*k[f#c#g#d#]
*E:
*M2/4
*MM152
4g#
=1
16b
8.f#
16e
8.g#
=2
16g#
8.d#
16c#
8.e
=3
16e
8.B
4f#
=4
4g#
16g#
8.b
=5
16b
8.f#
16a#
8.ee
=6
16dd#
8.b
16b
8.dd#
=7
4ee
4b
=8
16ff#
8.dd#
16cc#
8.aa#
=9
*M3/4
*MM50
[4aa
8aa]
16gg#
16ff#
16ee
16dd#
16ee
16ff#
=10
8ff##
[8gg#
8gg#]
16ff#
16ee
16dd#
16cc#
16dd#
16ee
=11
16ff#
16b
16ff#
16ee
4dd#
40cc#
40dd#
40cc#
40b#
40cc#
48dd#
48ee
48ee#
48ff#
48ff##
48gg#
=12
32aa
32aaa
32ddd#
32bb#
32aa
32dd#
32b#
32a
32d#
32B#
32A
32D#
8r
64d#
64a
64b#
64dd#
64aa
64bb#
64ddd#
64aaa
16ggg#
16fff##
=13
48fff##
48ddd#
48aa#
48ff##
48dd#
48a#
48f##
48d#
48A#
8r
16r
16r
64f##
64a#
64dd#
64ff##
16r
64ff##
64aa#
64ddd#
64fff##
16fff##
16fff#
=14
32fff#
32bb
32aa#
32bb
32aa#
32bb
32fff#
32eee
*8va
32ddd#
32aaa#
32bbb
32aaa#
48bbb
48aaa#
48fff#
48aaa#
48ggg#
48eee
48ggg#
48fff#
48ddd#
48fff#
48eee
48ccc#
48eee
48ddd#
48bb
48ddd#
48ccc#
48aa#
*X8va
=15
*M5/4
48bb
48aa#
48gg#
48ff#
48ee
48dd#
48cc#
48b
48a#
48g#
48f#
48e
48d#
48c#
48B
48A#
48G#
48F#
8r
8r
48B
48c#
48d#
48e
48f#
48g#
16a#
16b
16cc#
16dd#
16ee
16ff#
16gg#
16aa#
=16
*M2/4
*MM152
8bb
8r
8r
16b
16ff#
=17
8r
16b
16a#
8r
16cc#
16gg#
=18
8r
16cc#
16b#
8r
16dd#
16bb#
=19
8r
16ee
16ccc#
8r
16bb#
16ddd#
=20
8r
16gg#
16eee
8r
16ddd#
16gg#
=21
8r
16gg#
16eee
8r
16ccc#
16fff#
=22
4r
4dd#[
=23
4dd#]
4cc#
=24
4b
4f##
=25
4b
4g#
=26
4f##
4f##
=27
4g#
4a#
=28
4b
4a#
=29
4b
4cc#
=30
4dd#
4cc#
=31
4dd#
4ee#
=32
4ff#
4ee#
=33
4ff#
4gg#
=34
4aa#
4bb
=35
4gg#
4aa#
=36
4bb
4ccc#
=37
4ddd#
4eee
=38
4ccc#
4eee
=39
4eee
4fff#
=40
4ddd#
4eee
=41
4fff#
4ggg#
=42
*8va
4aaa
4aaa#
=43
4bbb
4bbb
=44
4bbb
4bbb
=45
4bbb
4bbb
=46
4bbb
4bbb
=47
4bbb
4ggg#
=48
16bbb
8.fff#
16eee
8.ggg#
=49
16ggg#
8.ddd#
16ccc#
8.eee
=50
4eee
4fff#
=51
4eee
*X8va
4r
=52
8r
16b
16ff#
8r
16ff#
16aa#
=53
8r
16aa#
16bb
*8va
4ccc#
=54
4eee
16bb
8.aaa
=55
16ggg#
8.eee
16ccc#
8.eee
=56
16gg#
8.eee
16ff#
8.ddd#
*X8va
=57
*M3/4
*MM50
[4ddd
8ddd]
16ccc#
16bb
16aa
16gg#
16aa
16bb
=58
8bb#
[8ccc#
8ccc#]
16bb
16aa
16gg#
16ff#
16gg#
16aa
=59
16bb
16ee
16bb
16aa
4gg#
80ff#
80gg#
80ff#
80ee#
80ff#
64gg#
64aa
64bb
64ccc#
8ddd
=60
*k[]
32ddd
32bb
32gg
32ff
32dd
32b
32g
32f
48d
48B
48G
16r
16r
64G
64B
64d
64f
16r
64dd
64ff
64gg
64bb
16ddd
16ccc
=61
48ccc
48gg
48ee
48cc
48g
48e
48c
48G
48E
16r
32r
32r
32r
96cc
96ee
96gg
16ccc
16bb
8bb
*8va
[8bbb
=62
*k[f#c#g#d#]
32bbb]
32eee
32ddd#
32eee
32ddd#
32eee
32bbb
32aaa
32ggg#
32ddd#
32eee
32ddd#
*X8va
48eee
48ccc#
48ddd#
48bb
48ccc#
48aa
48bb
48gg#
48aa
48ff#
48gg#
48ee
48ff#
48dd#
48ee
48cc#
48dd#
48b
=63
48cc#
48a
48b
48g#
48a
48f#
48g#
48e
48f#
48d#
48e
48c#
48d#
48B
48c#
48A
48B
48G#
48A
48F#
48G#
48E
48F#
48D#
48E
48C#
48D#
48BB
48C#
48AA#
48BB
48AA
48BB
48GG#
48BB
48FF#
=64
48EE
48BB
48GG#
48E
48BB
48G#
48E
48B
48G#
48e
48B
48g#
48e
48b
48g#
48ee
48b
48gg#
40ee
40bb
40gg#
40eee
40bb
8ggg#
8eee
=65
*M2/4
*MM152
8bb
8bb#
4ccc#
=66
16eee
8.bb
16aa
8.bb
=67
4bb
8r
16ccc#
16eee
=68
8r
16eee
16bb
8r
16bb
16fff#
=69
8r
16ggg#
16bb
4ff#
=70
4gg#
4aa
=71
4bb
8r
16bb
16ff#
=72
8r
16bb
16gg#
8r
16bb
16aa
=73
8r
16bb
16gg#
16ff#
8.bb
=74
16gg#
8.bb
16aa
8.bb
=75
4r
4f#
=76
4r
4g#
=77
4r
4a
=78
4g#
4cc#[
=79
4cc#]
4b
=80
4a
4g#
=81
4a
4c#
=82
4e
4d#
=83
4e
4f#
=84
4g#
[4cc#
=85
4cc#]
4b
=86
16g#
8.B
4A
=87
16f#
8.c
16B
8.e
=88
4d#
16G#
8.e
=89
4c
4B
=90
16c#
8.G#
16B
8.G#
=91
4c
4B
=92
16c#
8.G#
16B
8.G#
=93
16a
8.B
16g#
8.B
=94
16cc#
8.g#
16b
8.g#
=95
16aa
8.b
16gg#
8.b
=96
16ccc#
8.gg#
16bb
8.gg#
=97
16ccc#
8.gg#
16bb
8.gg#
=98
8r
[4.B
=99
4B]
==
*-
